X: 79
T: BRANDLING'S
%R: reel
B: Jean White "100 Popular Hornpipes, Reels, Jigs and Country Dances", Boston 1880 p.33
F: http://www.loc.gov/resource/sm1880.09124.0#seq-1
Z: 2014 John Chambers <jc:trillian.mit.edu>
M: C|
L: 1/8
K: A
% - - - - - - - - - - - - - - - - - - - - - - - - - - - - -
e |\
cA A/A/A eAcA | eagf fedc |\
dB B/B/B fBdB | fefg bagf |
eA A/A/A aAcA | efga fedc |\
defg abaf | ecaf e2A :|
|: f |\
eAcA cecA | aAgA fAeA |\
fBdB dfdB | bBaB gBfB |
eAcA aAcA | efga fedc |\
defg abaf | ecaf e2A H:|
% - - - - - - - - - - - - - - - - - - - - - - - - - - - - -

%%sep 1 1 500
%%sep 1 1 500
